X:1
T:Alexandria, CM
T:Alexandria, CM
T:William Arnold, 1791
T:Public Domain Courtesy of the Cyber Hymnal™
C:William Arnold, 1791
Z:Public Domain
Z:Courtesy of the Cyber Hymnal™
%%score ( 1 2 ) ( 3 4 )
L:1/8
M:3/4
K:F
V:1 treble 
V:2 treble 
V:3 bass 
V:4 bass 
V:1
 [FA]2 [FA]2 [EG]2 | [FA]4 [_Ec]2 | ([DB]2 [CA]2) [EG]2 | F4 [FA]2 | [EG]4 ([FA][Gc]) | B4 [FA]2 | %6
 [EG]6- | [EG]4 [Ec]2 | (c2 A2) [Fc]2 | [Fd]4 [Fd]2 | c4 [EB]2 | [FA]4 [Ec]2 | (c3 d) [FB]2 | %13
 [FA]4 [EG]2 | F6 |] %15
V:2
 x6 | x6 | x6 | F4 x2 | x6 | (F2 G2) x2 | x6 | x6 | F4 x2 | x6 | (F2 E2) x2 | x6 | F4 x2 | x6 | %14
 F6 |] %15
V:3
 [F,C]2 [F,C]2 [C,C]2 | [F,C]4 [A,,F,]2 | F,4 [C,B,]2 | [F,A,]4 [F,C]2 | [C,C]4 C2 | %5
 ([D,D]2 [E,C]2) [F,C]2 | [C,C]6- | [C,C]4 [C,B,]2 | (A,2 C2) [F,A,]2 | [B,,B,]4 [B,,B,]2 | %10
 [C,G,]4 [^C,G,]2 | [D,F,]4 [C,B,]2 | [F,A,]4 [B,,D]2 | [C,C]4 [C,B,]2 | [F,A,]6 |] %15
V:4
 x6 | x6 | (B,,2 C,2) x2 | x6 | x4 (F,E,) | x6 | x6 | x6 | F,4 x2 | x6 | x6 | x6 | x6 | x6 | x6 |] %15

